Sorst/app/images/logo.svg

<svg width="249" height="46" viewBox="0 0 249 46" fill="none" xmlns="http://www.w3.org/2000/svg">
<path fill-rule="evenodd" clip-rule="evenodd" d="M62.2785 14.4928L47 23.014L62.2785 31.5352C66.242 33.5878 70.2055 33.4634 74.1689 31.2864L89 23.014L74.1689 14.7416C72.1872 13.622 70.2055 13.0622 68.2237 13C66.3059 13 64.3242 13.4976 62.2785 14.4928Z" fill="white"/>
<path fill-rule="evenodd" clip-rule="evenodd" d="M41 22.9869L25.1391 13.9605C23.3211 13.2134 21.5658 12.9022 19.8104 13.0267C18.055 13.1512 16.2997 13.7114 14.5443 14.7075L0 22.9869L14.5443 31.2664C18.055 33.2584 21.5658 33.5697 25.1391 32.0134L41 22.9869Z" fill="white"/>
<path fill-rule="evenodd" clip-rule="evenodd" d="M24 9.93752L39.9235 19.0197C43.3716 20.5127 46.6942 20.2638 50.0168 18.522L65 9.99973L50.5184 1.72624C46.4434 -0.575412 42.4312 -0.575412 38.419 1.72624L24 9.93752Z" fill="#ED1C24"/>
<path fill-rule="evenodd" clip-rule="evenodd" d="M39.9235 26.9998L24 36.0727L38.419 44.2755C42.4939 46.5748 46.5061 46.5748 50.5184 44.2755L65 36.0105L50.0168 27.4969C46.6942 25.6948 43.3089 25.5084 39.9235 26.9998Z" fill="white"/>
<path fill-rule="evenodd" clip-rule="evenodd" d="M245.811 36.9372L245.999 35.1799H240.496L241.122 29.2803H239.058L238.245 37H245.811V36.9372ZM234.744 36.9372L234.932 35.1799H229.429L230.054 29.2803H227.991L227.178 37H234.744V36.9372ZM220.55 34.0502H217.299L219.3 30.9121L220.55 34.0502ZM224.052 36.9372L220.926 29.2176H218.049L213.297 36.9372H215.548L216.361 35.6192H221.238L221.801 36.9372H224.052ZM211.859 31.0377L212.047 29.2803H203.543L203.356 31.0377H206.544L205.919 36.9372H207.983L208.608 31.0377H211.859ZM199.354 36.9372L199.541 35.2427H193.539L193.727 33.7364H199.416L199.541 32.2929H193.852L193.977 30.9121H199.917L200.104 29.2176H192.163L191.351 36.9372H199.354ZM187.536 36.9372L188.349 29.2176H185.41L181.659 34.8661L179.22 29.2176H176.157L175.344 36.9372H177.407L177.97 31.2887L180.408 36.9372H182.409L186.098 31.2887L185.536 36.9372H187.536ZM158.962 34.2385V33.9875H156.898V34.2385C156.773 35.1172 156.398 35.1799 155.523 35.1799H153.022C152.084 35.1799 151.959 34.7406 152.084 33.6109L152.209 32.4184C152.334 31.3515 152.584 30.9749 153.397 30.9749H155.96C156.648 30.9749 157.148 31.0377 157.148 31.728L157.086 32.0418H159.212L159.274 31.728C159.524 29.4059 158.399 29.2176 156.648 29.2176H153.897C151.959 29.2176 150.458 29.5941 150.208 32.1046L150.02 34.113C149.708 36.9372 151.333 37 153.147 37H155.648C156.648 37 157.399 37 158.149 36.4351C158.774 35.8703 158.899 35.1172 158.962 34.2385ZM146.019 36.9372L146.206 35.2427H140.204L140.391 33.7364H146.081L146.206 32.2929H140.516L140.641 30.9121H146.581L146.769 29.2176H138.828L138.015 36.9372H146.019ZM123.134 31.0377L123.322 29.2803H114.318L114.13 31.0377H117.569L116.944 36.9372H119.007L119.632 31.0377H123.134ZM132.638 31.728C132.576 32.3556 132.45 32.5439 131.888 32.5439H128.074L128.261 30.9121H132.075C132.638 30.9121 132.701 31.1004 132.638 31.728ZM134.326 36.9372L132.951 33.9875C133.951 33.8619 134.576 33.3598 134.701 31.9163C134.701 31.7908 134.701 31.7908 134.701 31.728C134.701 31.6025 134.764 31.477 134.764 31.4142C134.952 29.5941 134.076 29.2803 132.576 29.2803H126.448L125.635 37H127.698L128.011 34.113H130.637L132.013 37H134.326V36.9372ZM171.905 36.9372L170.154 33.1088L172.718 29.2803H170.342L168.403 32.1674H165.027L165.339 29.2803H163.276L162.463 37H164.527L164.839 33.9875H168.153L169.591 37H171.905V36.9372ZM110.754 34.4895C110.941 32.7322 110.441 32.2929 108.128 32.2929L104.876 32.2301C104.313 32.2301 104.063 32.1674 104.126 31.5397C104.188 31.1004 104.313 30.8494 105.376 30.8494H110.379L110.566 29.1548H105.564C103.563 29.1548 102.313 29.2803 102.063 31.477C101.812 33.6736 102.938 33.7364 104.814 33.7992L107.69 33.8619C108.503 33.8619 108.753 33.9247 108.69 34.5523C108.628 35.1799 108.315 35.2427 107.315 35.2427H102.188L102 36.9372C105.376 36.9372 105.189 36.9372 107.127 36.9372C110.504 37 110.629 35.7448 110.754 34.4895ZM249 7C240.997 7 231.993 7 223.802 7C222.864 7 222.051 7.75314 221.989 8.6318L221.801 10.3891H231.68L230.242 23.8828H235.619C236.557 23.8828 237.37 23.1297 237.433 22.251C237.87 18.2971 238.245 14.3431 238.683 10.3891H246.937C247.875 10.3891 248.687 9.63599 248.75 8.75732L249 7ZM136.64 23.9456C133.826 23.9456 131.825 21.6234 132.075 18.8619C132.325 16.6025 132.576 14.3431 132.763 12.0837C133.076 9.25941 135.577 7 138.39 7C143.768 7 149.208 7 154.585 7C157.399 7 159.399 9.32217 159.149 12.0837C158.899 14.3431 158.649 16.6025 158.462 18.8619C158.149 21.6862 155.648 23.9456 152.834 23.9456C147.457 23.9456 142.017 23.9456 136.64 23.9456ZM139.141 18.8619C139.016 19.8033 139.704 20.4937 140.641 20.4937C143.643 20.4937 146.644 20.4937 149.645 20.4937C150.583 20.4937 151.396 19.7406 151.459 18.8619C151.709 16.6025 151.959 14.3431 152.146 12.0837C152.271 11.1423 151.584 10.4519 150.646 10.4519C147.644 10.4519 144.643 10.4519 141.642 10.4519C140.704 10.4519 139.891 11.205 139.829 12.0837C139.578 14.3431 139.328 16.6025 139.141 18.8619ZM182.159 12.1464C182.034 13.0879 181.221 13.7782 180.346 13.7782H172.905L172.53 17.2301L179.283 24.0084H187.536L180.784 17.2301C181.596 17.2301 182.784 17.2301 183.597 17.2301C186.411 17.2301 188.912 14.908 189.225 12.1464C189.537 9.32218 187.474 7.06276 184.66 7.06276C178.095 7.06276 171.592 7.06276 165.027 7.06276C164.089 7.06276 163.276 7.8159 163.214 8.69456L161.588 24.0084H166.965C167.903 24.0084 168.716 23.2552 168.778 22.3766C169.216 18.4226 169.591 14.4686 170.029 10.5146H180.658C181.534 10.4519 182.222 11.205 182.159 12.1464ZM196.978 17.2301C194.164 17.2301 192.163 14.908 192.413 12.1464C192.726 9.32218 195.227 7.06276 198.041 7.06276C204.731 7.06276 211.859 7.06276 218.55 7.06276L218.362 8.82008C218.237 9.76151 217.424 10.4519 216.549 10.4519C211.547 10.4519 206.232 10.4519 201.292 10.4519C200.354 10.4519 199.541 11.205 199.479 12.0837C199.354 13.0251 200.042 13.7155 200.98 13.7155C205.169 13.7155 209.858 13.7155 214.048 13.7155C216.861 13.7155 218.862 16.0377 218.612 18.7992C218.299 21.6234 215.798 23.8828 212.985 23.8828C206.294 23.8828 199.166 23.8828 192.476 23.8828L192.664 22.1255C192.789 21.1841 193.601 20.4937 194.477 20.4937C199.479 20.4937 204.794 20.4937 209.733 20.4937C210.671 20.4937 211.484 19.7406 211.547 18.8619C211.672 17.9205 210.984 17.2301 210.046 17.2301C205.857 17.2301 201.167 17.2301 196.978 17.2301ZM107.44 17.2301C104.626 17.2301 102.625 14.908 102.875 12.1464C103.188 9.32218 105.689 7.06276 108.503 7.06276C115.193 7.06276 122.321 7.06276 129.011 7.06276L128.824 8.82008C128.699 9.76151 127.886 10.4519 127.011 10.4519C122.009 10.4519 116.694 10.4519 111.754 10.4519C110.816 10.4519 110.003 11.205 109.941 12.0837C109.816 13.0251 110.504 13.7155 111.442 13.7155C115.631 13.7155 120.32 13.7155 124.51 13.7155C127.323 13.7155 129.324 16.0377 129.074 18.7992C128.761 21.6234 126.26 23.8828 123.447 23.8828C116.756 23.8828 109.628 23.8828 102.938 23.8828L103.125 22.1255C103.251 21.1841 104.063 20.4937 104.939 20.4937C109.941 20.4937 115.256 20.4937 120.195 20.4937C121.133 20.4937 121.946 19.7406 122.009 18.8619C122.134 17.9205 121.446 17.2301 120.508 17.2301C116.256 17.2301 111.629 17.2301 107.44 17.2301Z" fill="white"/>
</svg>

<svg width="249" height="46" fill="none" xmlns="http://www.w3.org/2000/svg"><path fill-rule="evenodd" clip-rule="evenodd" d="M62.279 14.493L47 23.014l15.279 8.521c3.963 2.053 7.926 1.928 11.89-.249L89 23.014l-14.831-8.272c-1.982-1.12-3.963-1.68-5.945-1.742-1.918 0-3.9.498-5.946 1.493zM41 22.987L25.14 13.96c-1.819-.748-3.574-1.059-5.33-.934-1.755.124-3.51.684-5.266 1.68L0 22.987l14.544 8.28c3.511 1.991 7.022 2.303 10.595.746L41 22.987z" fill="#fff"/><path fill-rule="evenodd" clip-rule="evenodd" d="M24 9.938l15.923 9.082c3.449 1.493 6.771 1.244 10.094-.498L65 10 50.518 1.726c-4.075-2.301-8.087-2.301-12.099 0L24 9.938z" fill="#ED1C24"/><path fill-rule="evenodd" clip-rule="evenodd" d="M39.923 27L24 36.073l14.419 8.203c4.075 2.299 8.087 2.299 12.1 0L65 36.01l-14.983-8.513c-3.323-1.802-6.708-1.989-10.094-.497zm205.888 9.937l.188-1.757h-5.503l.626-5.9h-2.064l-.813 7.72h7.566v-.063zm-11.067 0l.188-1.757h-5.503l.625-5.9h-2.063l-.813 7.72h7.566v-.063zM220.55 34.05h-3.251l2.001-3.138 1.25 3.138zm3.502 2.887l-3.126-7.72h-2.877l-4.752 7.72h2.251l.813-1.318h4.877l.563 1.318h2.251zm-12.193-5.9l.188-1.757h-8.504l-.187 1.758h3.188l-.625 5.9h2.064l.625-5.9h3.251zm-12.505 5.9l.187-1.694h-6.002l.188-1.507h5.689l.125-1.443h-5.689l.125-1.38h5.94l.187-1.695h-7.941l-.812 7.72h8.003zm-11.818 0l.813-7.72h-2.939l-3.751 5.65-2.439-5.65h-3.063l-.813 7.72h2.063l.563-5.648 2.438 5.648h2.001l3.689-5.648-.562 5.648h2zm-28.574-2.698v-.252h-2.064v.252c-.125.878-.5.94-1.375.94h-2.501c-.938 0-1.063-.438-.938-1.568l.125-1.193c.125-1.066.375-1.443 1.188-1.443h2.563c.688 0 1.188.063 1.188.753l-.062.314h2.126l.062-.314c.25-2.322-.875-2.51-2.626-2.51h-2.751c-1.938 0-3.439.376-3.689 2.887l-.188 2.008c-.312 2.824 1.313 2.887 3.127 2.887h2.501c1 0 1.751 0 2.501-.565.625-.565.75-1.318.813-2.197zm-12.943 2.698l.187-1.694h-6.002l.187-1.507h5.69l.125-1.443h-5.69l.125-1.38h5.94l.188-1.695h-7.941l-.813 7.72h8.004zm-22.885-5.9l.188-1.757h-9.004l-.188 1.758h3.439l-.625 5.9h2.063l.625-5.9h3.502zm9.504.691c-.062.628-.188.816-.75.816h-3.814l.187-1.632h3.814c.563 0 .626.188.563.816zm1.688 5.21l-1.375-2.95c1-.126 1.625-.628 1.75-2.072v-.188c0-.126.063-.251.063-.314.188-1.82-.688-2.134-2.188-2.134h-6.128l-.813 7.72h2.063l.313-2.887h2.626L132.013 37h2.313v-.063zm37.579 0l-1.751-3.83 2.564-3.828h-2.376l-1.939 2.887h-3.376l.312-2.887h-2.063l-.813 7.72h2.064l.312-3.013h3.314L169.591 37h2.314v-.063zm-61.151-2.449c.187-1.757-.313-2.196-2.626-2.196l-3.252-.063c-.563 0-.813-.063-.75-.69.062-.44.187-.69 1.25-.69h5.003l.187-1.695h-5.002c-2.001 0-3.251.125-3.501 2.322-.251 2.197.875 2.26 2.751 2.322l2.876.063c.813 0 1.063.063 1 .69-.062.628-.375.69-1.375.69h-5.127L102 36.938h5.127c3.377.063 3.502-1.192 3.627-2.447zM249 7h-25.198c-.938 0-1.751.753-1.813 1.632l-.188 1.757h9.879l-1.438 13.494h5.377c.938 0 1.751-.753 1.814-1.632.437-3.954.812-7.908 1.25-11.862h8.254c.938 0 1.75-.753 1.813-1.632L249 7zM136.64 23.946c-2.814 0-4.815-2.323-4.565-5.084.25-2.26.501-4.519.688-6.778C133.076 9.259 135.577 7 138.39 7h16.195c2.814 0 4.814 2.322 4.564 5.084-.25 2.26-.5 4.518-.687 6.778-.313 2.824-2.814 5.084-5.628 5.084H136.64zm2.501-5.084c-.125.941.563 1.632 1.5 1.632h9.004c.938 0 1.751-.753 1.814-1.632.25-2.26.5-4.519.687-6.778.125-.942-.562-1.632-1.5-1.632h-9.004c-.938 0-1.751.753-1.813 1.632-.251 2.26-.501 4.518-.688 6.778zm43.018-6.716c-.125.942-.938 1.632-1.813 1.632h-7.441l-.375 3.452 6.753 6.778h8.253l-6.752-6.778h2.813c2.814 0 5.315-2.322 5.628-5.084.312-2.824-1.751-5.083-4.565-5.083h-19.633c-.938 0-1.751.753-1.813 1.632l-1.626 15.313h5.377c.938 0 1.751-.753 1.813-1.631.438-3.954.813-7.908 1.251-11.862h10.629c.876-.063 1.564.69 1.501 1.631zm14.819 5.084c-2.814 0-4.815-2.322-4.565-5.084.313-2.824 2.814-5.083 5.628-5.083h20.509l-.188 1.757c-.125.942-.938 1.632-1.813 1.632h-15.257c-.938 0-1.751.753-1.813 1.632-.125.941.563 1.632 1.501 1.632h13.068c2.813 0 4.814 2.322 4.564 5.083-.313 2.824-2.814 5.084-5.627 5.084h-20.509l.188-1.758c.125-.94.937-1.631 1.813-1.631h15.256c.938 0 1.751-.753 1.814-1.632.125-.941-.563-1.632-1.501-1.632h-13.068zm-89.538 0c-2.814 0-4.815-2.322-4.565-5.084.313-2.824 2.814-5.083 5.628-5.083h20.508l-.187 1.757c-.125.942-.938 1.632-1.813 1.632h-15.257c-.938 0-1.751.753-1.813 1.632-.125.941.563 1.632 1.501 1.632h13.068c2.813 0 4.814 2.322 4.564 5.083-.313 2.824-2.814 5.084-5.627 5.084h-20.509l.187-1.758c.126-.94.938-1.631 1.814-1.631h15.256c.938 0 1.751-.753 1.814-1.632.125-.941-.563-1.632-1.501-1.632H107.44z" fill="#fff"/></svg>
